X: 231
T: Bai nian
L: 1/8
M: 2/4
K: F
f2d c [I:setbarnb 1]| 
f2d c | 
f d f g | 
c4 | 
cf2d | 
c dc2 | 
f2A G | 
F2z2 | 
c dc2 | 
F GF2 | 
cc2d | 
c4 | 
cc2f | 
c2c2 | 
f f A G | 
FB2G | 
F4 |]

@@@ Tune index: 9105
